svgs/sharp-solid/list-ul.svg

<svg xmlns="http://www.w3.org/2000/svg" viewBox="0 0 512 512"><!--! Font Awesome Pro 6.6.0 by @fontawesome - https://fontawesome.com License - https://fontawesome.com/license (Commercial License) Copyright 2024 Fonticons, Inc. --><path d="M64 144a48 48 0 1 0 0-96 48 48 0 1 0 0 96zM192 64l-32 0 0 64 32 0 288 0 32 0 0-64-32 0L192 64zm0 160l-32 0 0 64 32 0 288 0 32 0 0-64-32 0-288 0zm0 160l-32 0 0 64 32 0 288 0 32 0 0-64-32 0-288 0zM64 464a48 48 0 1 0 0-96 48 48 0 1 0 0 96zm48-208a48 48 0 1 0 -96 0 48 48 0 1 0 96 0z"/></svg>

<svg xmlns="http://www.w3.org/2000/svg" viewBox="0 0 512 512"><!--! Font Awesome Pro 6.4.0 by @fontawesome - https://fontawesome.com License - https://fontawesome.com/license (Commercial License) Copyright 2023 Fonticons, Inc. --><path d="M64 144a48 48 0 1 0 0-96 48 48 0 1 0 0 96zM192 64H160v64h32H480h32V64H480 192zm0 160H160v64h32H480h32V224H480 192zm0 160H160v64h32H480h32V384H480 192zM64 464a48 48 0 1 0 0-96 48 48 0 1 0 0 96zm48-208a48 48 0 1 0 -96 0 48 48 0 1 0 96 0z"/></svg>
